html/assets/images/static/app-store.svg

<svg width="169" height="55" viewBox="0 0 169 55" fill="none" xmlns="http://www.w3.org/2000/svg">
<path d="M27.1532 1.51147H141.847C156.019 1.51147 167.489 12.9809 167.489 27.1532C167.489 41.3256 156.019 52.7949 141.847 52.7949H27.1532C12.9809 52.7949 1.51147 41.3256 1.51147 27.1532C1.51147 12.9809 12.9809 1.51147 27.1532 1.51147Z" stroke="white" stroke-width="2.7543"/>
<path d="M61.7441 14.9532V20.9071H63.534C64.4836 20.9071 65.2142 20.6149 65.7986 20.067C66.383 19.5191 66.6387 18.7885 66.6387 17.9119C66.6387 17.0353 66.3465 16.3047 65.7986 15.7568C65.2507 15.2089 64.4836 14.9532 63.534 14.9532H61.7441ZM63.534 15.8299C64.1914 15.8299 64.7393 16.0125 65.1046 16.4143C65.5064 16.7796 65.689 17.291 65.689 17.9484C65.689 18.5694 65.5064 19.0808 65.1046 19.4826C64.7028 19.8843 64.1914 20.067 63.534 20.067H62.6573V15.8299H63.534Z" fill="white"/>
<path d="M69.6704 16.3776C69.0495 16.3776 68.5016 16.5967 68.0632 17.035C67.6249 17.4734 67.4058 18.0213 67.4058 18.6787C67.4058 19.3362 67.6249 19.8841 68.0632 20.3224C68.5016 20.7608 69.0129 20.9799 69.6704 21.0165C70.2914 21.0165 70.8393 20.7973 71.2776 20.359C71.7159 19.9207 71.9351 19.3728 71.9351 18.7153C71.9351 18.0578 71.7159 17.5099 71.2776 17.0716C70.8027 16.5967 70.2914 16.3776 69.6704 16.3776ZM69.6704 17.2542C70.0357 17.2542 70.3644 17.4003 70.6201 17.6925C70.8758 17.9482 70.9854 18.3135 70.9854 18.7153C70.9854 19.1171 70.8393 19.4823 70.6201 19.738C70.3644 19.9937 70.0357 20.1398 69.6704 20.1398C69.3051 20.1398 68.9764 19.9937 68.7207 19.738C68.465 19.4458 68.3555 19.1171 68.3555 18.7153C68.3555 18.3135 68.465 17.9482 68.7207 17.6925C68.9764 17.4003 69.3051 17.2542 69.6704 17.2542Z" fill="white"/>
<path d="M77.3041 19.3362L75.9892 16.3776H75.6604L74.382 19.3728L73.2497 16.4871H72.2634L74.1628 21.0165H74.4916L75.843 18.0578L77.1945 21.0165H77.5233L79.3861 16.4871H78.3999L77.3041 19.3362Z" fill="white"/>
<path d="M82.3087 16.3776C81.7974 16.3776 81.359 16.5602 81.0303 16.9255V16.4871H80.1902V20.9069H81.1034V18.277C81.1034 17.656 81.5051 17.2542 82.0896 17.2542C82.6375 17.2542 83.0027 17.656 83.0027 18.277V20.9069H83.9159V18.1308C83.9159 17.0716 83.2949 16.3776 82.3087 16.3776Z" fill="white"/>
<path d="M85.1576 14.1497V20.9071H86.0708V14.1497H85.1576Z" fill="white"/>
<path d="M89.3578 16.3776C88.7368 16.3776 88.1889 16.5967 87.7506 17.035C87.3123 17.4734 87.0931 18.0213 87.0931 18.6787C87.0931 19.3362 87.3123 19.8841 87.7506 20.3224C88.1889 20.7608 88.7003 20.9799 89.3578 21.0165C89.9787 21.0165 90.5267 20.7973 90.965 20.359C91.4033 19.9207 91.6224 19.3728 91.6224 18.7153C91.6224 18.0578 91.4033 17.5099 90.965 17.0716C90.5267 16.5967 89.9787 16.3776 89.3578 16.3776ZM89.3943 17.2542C89.7596 17.2542 90.0883 17.4003 90.344 17.6925C90.5997 17.9482 90.7093 18.3135 90.7093 18.7153C90.7093 19.1171 90.5632 19.4823 90.344 19.738C90.0883 19.9937 89.7596 20.1398 89.3943 20.1398C89.029 20.1398 88.7003 19.9937 88.4446 19.738C88.1889 19.4458 88.0794 19.1171 88.0794 18.7153C88.0794 18.3135 88.1889 17.9482 88.4446 17.6925C88.6638 17.4003 88.9925 17.2542 89.3943 17.2542Z" fill="white"/>
<path d="M94.3256 16.3776C93.5585 16.3776 92.9741 16.7063 92.5358 17.3273L93.0472 17.8752C93.4124 17.4368 93.8142 17.2177 94.216 17.2177C94.8004 17.2177 95.1292 17.5464 95.1292 18.1674V18.4596H93.9238C92.9741 18.4596 92.3531 18.971 92.3531 19.738C92.3531 20.5051 92.9376 21.0165 93.8507 21.0165C94.4352 21.0165 94.8735 20.8338 95.2022 20.432V20.9434H96.0423V18.277C96.0423 17.035 95.3483 16.3776 94.3256 16.3776ZM94.0334 20.2859C93.5951 20.2859 93.3028 20.0668 93.3028 19.7015C93.3028 19.3362 93.5585 19.1536 94.0699 19.1536H95.1657V19.2266C95.1292 19.8476 94.6543 20.2859 94.0334 20.2859Z" fill="white"/>
<path d="M100.535 17.0354C100.207 16.5971 99.7318 16.3779 99.1108 16.3779C98.5264 16.3779 98.015 16.5971 97.6132 17.0354C97.2114 17.4737 97.0288 18.0216 97.0288 18.6791C97.0288 19.3366 97.2114 19.8845 97.6132 20.3228C98.015 20.7611 98.4899 20.9803 99.1108 20.9803C99.7683 20.9803 100.28 20.7246 100.608 20.2498V20.8707H101.449V14.1133H100.535V17.0354ZM99.2935 20.1402C98.9282 20.1402 98.5995 19.9941 98.3438 19.7384C98.0881 19.4827 97.9785 19.1174 97.9785 18.6791C97.9785 18.2408 98.0881 17.9121 98.3438 17.6564C98.5995 17.4007 98.8917 17.2546 99.2935 17.2546C99.6222 17.2546 99.9509 17.3642 100.207 17.6198C100.462 17.8755 100.572 18.2408 100.572 18.6791C100.572 19.6653 99.9875 20.1402 99.2935 20.1402Z" fill="white"/>
<path d="M107.183 16.3776C106.562 16.3776 106.014 16.5967 105.576 17.035C105.138 17.4734 104.918 18.0213 104.918 18.6787C104.918 19.3362 105.138 19.8841 105.576 20.3224C106.014 20.7608 106.526 20.9799 107.183 21.0165C107.804 21.0165 108.352 20.7973 108.79 20.359C109.229 19.9207 109.448 19.3728 109.448 18.7153C109.448 18.0578 109.229 17.5099 108.79 17.0716C108.315 16.5967 107.804 16.3776 107.183 16.3776ZM107.183 17.2542C107.548 17.2542 107.877 17.4003 108.133 17.6925C108.388 17.9482 108.498 18.3135 108.498 18.7153C108.498 19.1171 108.352 19.4823 108.133 19.738C107.877 19.9937 107.548 20.1398 107.183 20.1398C106.818 20.1398 106.489 19.9937 106.233 19.738C105.978 19.4458 105.868 19.1171 105.868 18.7153C105.868 18.3135 105.978 17.9482 106.233 17.6925C106.489 17.4003 106.818 17.2542 107.183 17.2542Z" fill="white"/>
<path d="M112.589 16.3776C112.077 16.3776 111.639 16.5602 111.31 16.9255V16.4871H110.47V20.9069H111.383V18.277C111.383 17.656 111.785 17.2542 112.37 17.2542C112.917 17.2542 113.283 17.656 113.283 18.277V20.9069H114.196V18.1308C114.196 17.0716 113.612 16.3776 112.589 16.3776Z" fill="white"/>
<path d="M119.858 20.14C119.31 20.14 119.017 19.9574 119.017 19.3729V17.2909H120.296V16.4873H119.017V15.3185H118.104V16.4873H117.41V17.2909H118.104V19.446C118.104 20.4687 118.689 20.9801 119.675 20.9801C119.894 20.9801 120.15 20.9436 120.442 20.8705V20.067C120.15 20.14 119.967 20.14 119.858 20.14Z" fill="white"/>
<path d="M123.474 16.3778C122.963 16.3778 122.561 16.5604 122.232 16.9257V14.1497H121.319V20.9071H122.232V18.2772C122.232 17.6562 122.634 17.2544 123.218 17.2544C123.766 17.2544 124.132 17.6562 124.132 18.2772V20.9071H125.045V18.1311C125.045 17.1083 124.46 16.3778 123.474 16.3778Z" fill="white"/>
<path d="M130.231 18.4231C130.231 17.8386 130.049 17.3638 129.684 16.962C129.318 16.5602 128.843 16.3776 128.295 16.3776C127.675 16.3776 127.163 16.5967 126.725 17.0716C126.287 17.5099 126.104 18.0578 126.104 18.7153C126.104 19.3728 126.323 19.9207 126.761 20.359C127.2 20.7973 127.748 21.0165 128.405 21.0165C129.063 21.0165 129.61 20.7973 130.085 20.2859L129.647 19.6284C129.282 19.9937 128.843 20.1398 128.405 20.1398C127.675 20.1398 127.127 19.7015 127.017 18.971H130.195C130.195 18.7883 130.231 18.6057 130.231 18.4231ZM128.222 17.1812C128.843 17.1812 129.318 17.6195 129.318 18.277H127.017C127.127 17.6195 127.601 17.1812 128.222 17.1812Z" fill="white"/>
<path d="M71.3503 36.7963L66.6018 25.4365H66.0174L61.3054 36.7963H63.1318L63.8988 34.9335H68.7203L69.4874 36.7963H71.3503ZM64.5198 33.3993L66.3096 28.7605L68.0629 33.3993H64.5198Z" fill="white"/>
<path d="M76.9755 28.2855C75.8066 28.2855 74.7839 28.7969 74.1995 29.6735V28.5047H72.5923V39.8645H74.309V35.81C74.93 36.6136 75.8432 36.9789 76.9755 36.9789C78.1078 36.9789 79.0575 36.5771 79.788 35.737C80.5186 34.8969 80.8838 33.8741 80.8838 32.6322C80.8838 31.3903 80.5186 30.3675 79.788 29.5274C79.0575 28.6873 78.1078 28.2855 76.9755 28.2855ZM76.6833 35.3352C76.0258 35.3352 75.4414 35.116 74.9665 34.6412C74.4917 34.1663 74.2725 33.5088 74.2725 32.5957C74.2725 30.8059 75.3683 29.8927 76.6833 29.8927C77.3773 29.8927 77.9617 30.1484 78.4366 30.6598C78.9114 31.1711 79.1306 31.8286 79.1306 32.6322C79.1306 33.4358 78.9114 34.0567 78.4366 34.5681C77.9617 35.0795 77.3773 35.3352 76.6833 35.3352Z" fill="white"/>
<path d="M86.874 28.2855C85.7052 28.2855 84.6824 28.7969 84.098 29.6735V28.5047H82.4908V39.8645H84.2076V35.81C84.8286 36.6136 85.7417 36.9789 86.874 36.9789C88.0064 36.9789 88.9561 36.5771 89.6866 35.737C90.4171 34.8969 90.7824 33.8741 90.7824 32.6322C90.7824 31.3903 90.4171 30.3675 89.6866 29.5274C88.9561 28.6873 88.0064 28.2855 86.874 28.2855ZM86.6184 35.3352C85.9609 35.3352 85.3765 35.116 84.9016 34.6412C84.4268 34.1663 84.2076 33.5088 84.2076 32.5957C84.2076 30.8059 85.3034 29.8927 86.6184 29.8927C87.3124 29.8927 87.8968 30.1484 88.3716 30.6598C88.8465 31.1711 89.0656 31.8286 89.0656 32.6322C89.0656 33.4358 88.8465 34.0567 88.3716 34.5681C87.8603 35.0795 87.3124 35.3352 86.6184 35.3352Z" fill="white"/>
<path d="M100.024 25.4365C99.0741 25.4365 98.2705 25.7287 97.6131 26.2766C96.9556 26.8245 96.6268 27.5551 96.6268 28.4682C96.6268 29.8928 97.54 30.8059 99.1107 31.573L100.28 32.1574C101.412 32.7053 101.85 33.0341 101.85 33.8377C101.85 34.7874 101.12 35.4083 99.9873 35.4083C98.8915 35.4083 97.9783 34.8239 97.1747 33.6185L95.9694 34.5682C96.8095 36.0658 98.2705 36.979 100.024 36.979C101.047 36.979 101.923 36.6867 102.581 36.1023C103.275 35.5179 103.603 34.7143 103.603 33.7646C103.603 32.3035 102.763 31.4269 101.047 30.5868L99.8412 30.0024C98.7454 29.4545 98.3436 29.1622 98.3436 28.3952C98.3436 27.5185 99.0741 27.0437 99.9508 27.0437C100.864 27.0437 101.631 27.5185 102.215 28.3952L103.421 27.4455C102.8 26.2401 101.521 25.4365 100.024 25.4365Z" fill="white"/>
<path d="M109.009 35.3716C107.986 35.3716 107.439 35.0064 107.439 33.9471V30.0022H109.813V28.4681H107.439V26.2765H105.722V28.4681H104.407V30.0022H105.722V34.0567C105.722 35.9926 106.818 36.9423 108.644 36.9423C109.046 36.9423 109.521 36.8692 110.068 36.7596V35.2621C109.594 35.3351 109.265 35.3716 109.009 35.3716Z" fill="white"/>
<path d="M115 28.2855C113.831 28.2855 112.808 28.7238 112.004 29.5274C111.201 30.3675 110.799 31.3903 110.799 32.5957C110.799 33.8011 111.201 34.8603 112.004 35.6639C112.808 36.504 113.794 36.9058 115 36.9423C116.168 36.9423 117.155 36.504 117.995 35.7004C118.835 34.8603 119.237 33.8376 119.237 32.5957C119.237 31.3903 118.798 30.331 117.995 29.5274C117.191 28.7238 116.168 28.2855 115 28.2855ZM115.036 29.9292C115.73 29.9292 116.315 30.1849 116.789 30.7328C117.264 31.2442 117.52 31.8651 117.52 32.6687C117.52 33.4358 117.264 34.0567 116.789 34.6046C116.315 35.116 115.73 35.3717 115.036 35.3717C114.306 35.3717 113.721 35.116 113.283 34.6046C112.808 34.0933 112.589 33.4358 112.589 32.6687C112.589 31.9017 112.808 31.2442 113.283 30.7328C113.721 30.1849 114.306 29.9292 115.036 29.9292Z" fill="white"/>
<path d="M124.789 28.395C123.803 28.395 123.035 28.7968 122.451 29.5639V28.4681H120.844V36.7596H122.561V32.3399C122.561 30.8788 123.547 30.0387 124.898 30.0387H125.41V28.4681C125.264 28.4315 125.044 28.395 124.789 28.395Z" fill="white"/>
<path d="M133.811 32.0841C133.811 30.9883 133.446 30.0751 132.752 29.3446C132.058 28.614 131.181 28.2488 130.122 28.2488C128.953 28.2488 127.967 28.6871 127.2 29.5272C126.396 30.3673 126.031 31.3901 126.031 32.5955C126.031 33.8374 126.433 34.8601 127.237 35.7002C128.04 36.5403 129.063 36.9421 130.305 36.9421C131.51 36.9421 132.569 36.5038 133.483 35.5906L132.679 34.3853C131.948 35.0427 131.181 35.3715 130.341 35.3715C128.953 35.3715 127.967 34.5679 127.748 33.1799H133.702C133.738 32.8146 133.811 32.4493 133.811 32.0841ZM130.049 29.7829C131.218 29.7829 132.095 30.5865 132.095 31.8284H127.748C128.004 30.5865 128.917 29.7829 130.049 29.7829Z" fill="white"/>
<path d="M53.3792 26.4227C53.3427 23.2448 56.1552 21.7107 56.2648 21.6377C54.6942 19.4826 52.2103 19.1904 51.3702 19.1539C49.3247 18.9347 47.3158 20.3227 46.2565 20.3227C45.1972 20.3227 43.5535 19.1904 41.8368 19.2269C39.6086 19.2634 37.4901 20.4688 36.3578 22.3682C33.9835 26.2035 35.7368 31.8651 38.038 34.9699C39.1703 36.504 40.4853 38.1843 42.2386 38.1477C43.9553 38.0747 44.5763 37.125 46.6218 37.125C48.6673 37.125 49.2517 38.1477 51.0415 38.1112C52.8678 38.0747 54.0367 36.5771 55.1325 35.043C56.4474 33.2897 56.9588 31.5729 56.9953 31.4999C56.9223 31.4634 53.4157 30.2214 53.3792 26.4227ZM50.0187 17.1449C50.9319 16.0856 51.5529 14.6245 51.3702 13.127C50.0553 13.1635 48.375 13.9671 47.4254 15.0263C46.5852 15.9395 45.8182 17.4736 46.0373 18.8982C47.5349 19.0077 49.0691 18.1676 50.0187 17.1449Z" fill="white"/>
</svg>

<svg width="169" height="55" fill="none" xmlns="http://www.w3.org/2000/svg"><path d="M27.153 1.511h114.694c14.172 0 25.642 11.47 25.642 25.642 0 14.173-11.47 25.642-25.642 25.642H27.153c-14.172 0-25.642-11.47-25.642-25.642 0-14.172 11.47-25.642 25.642-25.642z" stroke="#fff" stroke-width="2.754"/><path d="M61.744 14.953v5.954h1.79c.95 0 1.68-.292 2.265-.84.584-.548.84-1.279.84-2.155 0-.877-.292-1.607-.84-2.155-.548-.548-1.315-.804-2.265-.804h-1.79zm1.79.877c.657 0 1.205.182 1.57.584.402.366.585.877.585 1.534 0 .621-.183 1.133-.584 1.535-.402.401-.914.584-1.571.584h-.877V15.83h.877zm6.136.548c-.62 0-1.168.219-1.607.657-.438.438-.657.986-.657 1.644 0 .657.219 1.205.657 1.643.439.439.95.658 1.607.695.621 0 1.17-.22 1.608-.658.438-.438.657-.986.657-1.644 0-.657-.22-1.205-.657-1.643-.475-.475-.987-.694-1.608-.694zm0 .876c.366 0 .694.146.95.438.256.256.365.622.365 1.023 0 .402-.146.767-.365 1.023a1.326 1.326 0 01-.95.402c-.365 0-.694-.146-.95-.402-.255-.292-.364-.62-.364-1.023 0-.401.109-.767.365-1.023a1.23 1.23 0 01.95-.438zm7.634 2.082l-1.315-2.958h-.329l-1.278 2.995-1.132-2.886h-.987l1.9 4.53h.329l1.351-2.96 1.352 2.96h.328l1.863-4.53H78.4l-1.096 2.85zm5.005-2.958c-.512 0-.95.182-1.279.547v-.438h-.84v4.42h.913v-2.63c0-.621.402-1.023.987-1.023.547 0 .913.402.913 1.023v2.63h.913V18.13c0-1.06-.621-1.753-1.607-1.753zm2.849-2.228v6.757h.913V14.15h-.913zm4.2 2.228c-.621 0-1.17.219-1.607.657-.439.438-.658.986-.658 1.644 0 .657.22 1.205.658 1.643.438.439.95.658 1.607.695.62 0 1.169-.22 1.607-.658.438-.438.657-.986.657-1.644 0-.657-.219-1.205-.657-1.643a2.105 2.105 0 00-1.607-.694zm.036.876c.366 0 .694.146.95.438.256.256.365.622.365 1.023 0 .402-.146.767-.365 1.023a1.326 1.326 0 01-.95.402c-.365 0-.694-.146-.95-.402-.255-.292-.365-.62-.365-1.023 0-.401.11-.767.366-1.023.219-.292.548-.438.95-.438zm4.932-.876c-.767 0-1.352.328-1.79.95l.511.547c.365-.438.767-.657 1.169-.657.584 0 .913.328.913.95v.292h-1.205c-.95 0-1.57.511-1.57 1.278s.584 1.279 1.497 1.279c.584 0 1.023-.183 1.351-.585v.511h.84v-2.666c0-1.242-.694-1.9-1.716-1.9zm-.293 3.908c-.438 0-.73-.22-.73-.585s.255-.547.767-.547h1.096v.073c-.037.62-.512 1.059-1.133 1.059zm6.502-3.251c-.328-.438-.803-.657-1.424-.657-.585 0-1.096.22-1.498.657-.402.439-.584.987-.584 1.644 0 .658.182 1.206.584 1.644.402.438.877.657 1.498.657.657 0 1.169-.255 1.497-.73v.62h.841v-6.757h-.914v2.922zm-1.242 3.105c-.365 0-.694-.146-.95-.402-.255-.255-.365-.62-.365-1.059 0-.438.11-.767.366-1.023.256-.255.548-.401.95-.401.328 0 .657.11.913.365.255.255.365.62.365 1.06 0 .985-.585 1.46-1.279 1.46zm7.89-3.762c-.621 0-1.169.219-1.607.657-.438.438-.658.986-.658 1.644 0 .657.22 1.205.658 1.643.438.439.95.658 1.607.695.621 0 1.169-.22 1.607-.658.439-.438.658-.986.658-1.644 0-.657-.219-1.205-.658-1.643-.475-.475-.986-.694-1.607-.694zm0 .876c.365 0 .694.146.95.438.255.256.365.622.365 1.023 0 .402-.146.767-.365 1.023a1.328 1.328 0 01-.95.402c-.365 0-.694-.146-.95-.402-.255-.292-.365-.62-.365-1.023 0-.401.11-.767.365-1.023.256-.292.585-.438.95-.438zm5.406-.876c-.512 0-.95.182-1.279.547v-.438h-.84v4.42h.913v-2.63c0-.621.402-1.023.987-1.023.547 0 .913.402.913 1.023v2.63h.913V18.13c0-1.06-.584-1.753-1.607-1.753zm7.269 3.762c-.548 0-.841-.183-.841-.767V17.29h1.279v-.804h-1.279V15.32h-.913v1.168h-.694v.804h.694v2.155c0 1.023.585 1.534 1.571 1.534.219 0 .475-.036.767-.11v-.803a2.195 2.195 0 01-.584.073zm3.616-3.762a1.58 1.58 0 00-1.242.548V14.15h-.913v6.757h.913v-2.63c0-.62.402-1.023.986-1.023.548 0 .914.402.914 1.023v2.63h.913v-2.776c0-1.023-.585-1.753-1.571-1.753zm6.757 2.045c0-.584-.182-1.06-.547-1.461-.366-.402-.841-.584-1.389-.584-.62 0-1.132.219-1.57.694-.438.438-.621.986-.621 1.643 0 .658.219 1.206.657 1.644.439.438.987.657 1.644.657.658 0 1.205-.219 1.68-.73l-.438-.658a1.711 1.711 0 01-1.242.512c-.73 0-1.278-.439-1.388-1.169h3.178c0-.183.036-.365.036-.548zm-2.009-1.242c.621 0 1.096.438 1.096 1.096h-2.301c.11-.658.584-1.096 1.205-1.096zM71.35 36.796l-4.748-11.36h-.585l-4.712 11.36h1.827l.767-1.862h4.821l.767 1.862h1.863zM64.52 33.4l1.79-4.639 1.753 4.64H64.52zm12.455-5.115c-1.168 0-2.191.512-2.775 1.389v-1.17h-1.608v11.36h1.717V35.81c.621.804 1.534 1.169 2.666 1.169 1.133 0 2.083-.402 2.813-1.242s1.096-1.863 1.096-3.105-.365-2.264-1.096-3.105c-.73-.84-1.68-1.242-2.813-1.242zm-.292 7.05c-.657 0-1.242-.219-1.717-.694-.474-.475-.694-1.132-.694-2.045 0-1.79 1.096-2.703 2.411-2.703.694 0 1.279.255 1.754.767.474.511.694 1.169.694 1.972 0 .804-.22 1.425-.694 1.936a2.299 2.299 0 01-1.754.767zm10.191-7.05c-1.169 0-2.192.512-2.776 1.389v-1.17h-1.607v11.36h1.717V35.81c.62.804 1.534 1.169 2.666 1.169s2.082-.402 2.813-1.242c.73-.84 1.095-1.863 1.095-3.105s-.365-2.264-1.095-3.105c-.73-.84-1.68-1.242-2.813-1.242zm-.256 7.05c-.657 0-1.242-.219-1.716-.694-.475-.475-.694-1.132-.694-2.045 0-1.79 1.095-2.703 2.41-2.703.694 0 1.279.255 1.754.767.475.511.694 1.169.694 1.972 0 .804-.22 1.425-.694 1.936-.512.512-1.06.767-1.754.767zm13.406-9.899c-.95 0-1.754.293-2.41.84-.658.549-.987 1.28-.987 2.192 0 1.425.913 2.338 2.484 3.105l1.169.584c1.132.548 1.57.877 1.57 1.68 0 .95-.73 1.571-1.863 1.571-1.096 0-2.009-.584-2.812-1.79l-1.206.95c.84 1.498 2.302 2.411 4.055 2.411 1.023 0 1.899-.292 2.557-.877.694-.584 1.022-1.388 1.022-2.337 0-1.462-.84-2.338-2.556-3.178l-1.206-.585c-1.096-.547-1.497-.84-1.497-1.607 0-.877.73-1.351 1.607-1.351.913 0 1.68.474 2.264 1.351l1.206-.95c-.621-1.205-1.9-2.009-3.397-2.009zm8.985 9.936c-1.023 0-1.57-.366-1.57-1.425v-3.945h2.374v-1.534h-2.374v-2.192h-1.717v2.192h-1.315v1.534h1.315v4.055c0 1.936 1.096 2.885 2.922 2.885.402 0 .877-.073 1.424-.182v-1.498c-.474.073-.803.11-1.059.11zM115 28.285a4.14 4.14 0 00-2.996 1.242c-.803.84-1.205 1.863-1.205 3.069 0 1.205.402 2.264 1.205 3.068.804.84 1.79 1.242 2.996 1.278 1.168 0 2.155-.438 2.995-1.242.84-.84 1.242-1.862 1.242-3.104 0-1.206-.439-2.265-1.242-3.069A4.14 4.14 0 00115 28.285zm.036 1.644c.694 0 1.279.256 1.753.804.475.511.731 1.132.731 1.936 0 .767-.256 1.388-.731 1.936a2.297 2.297 0 01-1.753.767c-.73 0-1.315-.256-1.753-.767-.475-.512-.694-1.17-.694-1.936 0-.767.219-1.425.694-1.936.438-.548 1.023-.804 1.753-.804zm9.753-1.534c-.986 0-1.754.402-2.338 1.169v-1.096h-1.607v8.292h1.717v-4.42c0-1.461.986-2.301 2.337-2.301h.512v-1.57a2.623 2.623 0 00-.621-.074zm9.022 3.689c0-1.096-.365-2.009-1.059-2.74-.694-.73-1.571-1.095-2.63-1.095-1.169 0-2.155.438-2.922 1.278-.804.84-1.169 1.863-1.169 3.069 0 1.241.402 2.264 1.206 3.104.803.84 1.826 1.242 3.068 1.242 1.205 0 2.264-.438 3.178-1.351l-.804-1.206c-.731.658-1.498.986-2.338.986-1.388 0-2.374-.803-2.593-2.191h5.954c.036-.365.109-.73.109-1.096zm-3.762-2.301c1.169 0 2.046.803 2.046 2.045h-4.347c.256-1.241 1.169-2.045 2.301-2.045zm-76.669-3.36c-.037-3.178 2.775-4.712 2.885-4.785-1.57-2.155-4.055-2.448-4.895-2.484-2.045-.22-4.054 1.169-5.113 1.169-1.06 0-2.703-1.133-4.42-1.096-2.228.036-4.347 1.242-5.48 3.141-2.373 3.835-.62 9.497 1.681 12.602 1.132 1.534 2.447 3.214 4.2 3.178 1.717-.073 2.338-1.023 4.384-1.023 2.045 0 2.63 1.023 4.42.986 1.826-.036 2.995-1.534 4.09-3.068 1.315-1.753 1.827-3.47 1.863-3.543-.073-.037-3.58-1.279-3.616-5.077zm-3.361-9.278c.913-1.06 1.534-2.52 1.351-4.018-1.315.037-2.995.84-3.945 1.9-.84.913-1.607 2.447-1.388 3.871 1.498.11 3.032-.73 3.982-1.753z" fill="#fff"/></svg>
